;FLAVOR:Marlin
;TIME:7582
;Filament used: 4.09638m
;Layer height: 0.12
;MINX:91.5
;MINY:91.5
;MINZ:0.12
;MAXX:143.5
;MAXY:143.5
;MAXZ:30
;Generated with Cura_SteamEngine 4.11.0
M140 S50             ; Set bed temperature to 50째C
M105                 ; Report the current temperature
M190 S50             ; Wait for bed temperature to reach 50째C
M104 S200            ; Set nozzle temperature to 200째C
M105                 ; Report the current temperature
M109 S200            ; Wait for nozzle temperature to reach 200째C
M82                  ; Set absolute extrusion mode
; Ender 3 Custom Start G-code
G92 E0               ; Reset Extruder position
G28                  ; Home all axes
G1 Z2.0 F3000        ; Move Z Axis up by 2.0 mm to prevent scratching of the Heat Bed
G1 X0.1 Y20 Z0.3 F5000.0 ; Move to start position
G1 X0.1 Y200.0 Z0.3 F1500.0 E15 ; Extrude filament while moving to start the first line
G1 X0.4 Y200.0 Z0.3 F5000.0 ; Move slightly to the side
G1 X0.4 Y20 Z0.3 F1500.0 E30 ; Extrude filament while drawing the second line
G92 E0               ; Reset Extruder position
G1 Z2.0 F3000        ; Move Z Axis up by 2.0 mm
G1 X5 Y20 Z0.3 F5000.0 ; Move over to prevent blob squish
G92 E0               ; Reset Extruder position
G92 E0               ; Reset Extruder position
G1 F2700 E-5         ; Retract filament by 5 mm
;LAYER_COUNT:250
;LAYER:0
M107                 ; Turn off the fan
G0 F6000 X94.698 Y94.764 Z0.12 ; Move to a specific position
;TYPE:SKIRT
G1 F2700 E0          ; Start extruding for the skirt
G1 F1200 X95.386 Y94.127 E0.01871 ; Extrude filament while drawing a line
G1 X96.126 Y93.551 E0.03742 ; Extrude filament while drawing a line
G1 X96.912 Y93.039 E0.05614 ; Extrude filament while drawing a line
G1 X96.912 Y93.039 E0.05614
G1 X97.739 Y92.597 E0.07486
G1 X98.601 Y92.227 E0.09358
G1 X99.491 Y91.931 E0.11229
G1 X100.403 Y91.713 E0.13101
G1 X101.33 Y91.572 E0.14972
G1 X102.201 Y91.513 E0.16714
G1 X102.522 Y91.504 E0.17355
G1 X102.83 Y91.5 E0.1797
G1 X131.793 Y91.5 E0.75768
G1 X132.649 Y91.511 E0.77477
G1 X133.585 Y91.565 E0.79348
G1 X134.513 Y91.697 E0.81218
G1 X135.427 Y91.909 E0.83091
G1 X136.319 Y92.198 E0.84962
G1 X137.184 Y92.561 E0.86834
G1 X138.014 Y92.997 E0.88705
G1 X138.805 Y93.502 E0.90578
G1 X139.549 Y94.073 E0.92449
G1 X140.242 Y94.705 E0.94321
G1 X140.879 Y95.393 E0.96192
G1 X141.454 Y96.134 E0.98064
G1 X141.965 Y96.92 E0.99935
G1 X142.407 Y97.748 E1.01808
G1 X142.776 Y98.61 E1.03679
G1 X143.071 Y99.5 E1.0555
G1 X143.289 Y100.412 E1.07421
G1 X143.429 Y101.34 E1.09294
G1 X143.487 Y102.201 E1.11016
G1 X143.496 Y102.521 E1.11655
G1 X143.5 Y102.83 E1.12272
G1 X143.499 Y131.9 E1.70284
G1 X143.49 Y132.627 E1.71735
G1 X143.439 Y133.564 E1.73608
G1 X143.307 Y134.492 E1.75478
G1 X143.098 Y135.406 E1.7735
G1 X142.811 Y136.299 E1.79221
G1 X142.449 Y137.165 E1.81094
G1 X142.015 Y137.996 E1.82965
G1 X141.511 Y138.787 E1.84837
G1 X140.942 Y139.532 E1.86708
G1 X140.311 Y140.227 E1.88581
G1 X139.624 Y140.865 E1.90452
G1 X138.885 Y141.442 E1.92323
G1 X138.099 Y141.954 E1.94195
G1 X137.273 Y142.397 E1.96066
G1 X136.411 Y142.769 E1.97939
G1 X135.522 Y143.065 E1.99809
G1 X134.61 Y143.285 E2.01681
G1 X133.683 Y143.426 E2.03552
G1 X132.799 Y143.487 E2.05321
G1 X132.478 Y143.496 E2.05962
G1 X132.17 Y143.5 E2.06576
G1 X103.065 Y143.499 E2.64659
G1 X102.367 Y143.49 E2.66052
G1 X101.431 Y143.438 E2.67922
G1 X100.502 Y143.306 E2.69795
G1 X99.588 Y143.096 E2.71666
G1 X98.695 Y142.809 E2.73538
G1 X97.83 Y142.446 E2.7541
G1 X96.999 Y142.012 E2.77281
G1 X96.208 Y141.508 E2.79153
G1 X95.463 Y140.938 E2.81025
G1 X94.769 Y140.307 E2.82897
G1 X94.132 Y139.62 E2.84766
G1 X93.555 Y138.88 E2.86639
G1 X93.043 Y138.094 E2.88511
G1 X92.6 Y137.267 E2.90383
G1 X92.229 Y136.406 E2.92254
G1 X91.933 Y135.516 E2.94126
G1 X91.714 Y134.604 E2.95998
G1 X91.573 Y133.677 E2.97869
G1 X91.513 Y132.788 E2.99647
G1 X91.504 Y132.455 E3.00312
G1 X91.5 Y132.158 E3.00904
G1 X91.501 Y103.025 E3.59042
G1 X91.51 Y102.36 E3.6037
G1 X91.563 Y101.424 E3.62241
G1 X91.695 Y100.495 E3.64113
G1 X91.906 Y99.581 E3.65985
G1 X92.194 Y98.689 E3.67856
G1 X92.557 Y97.824 E3.69728
G1 X92.992 Y96.993 E3.716
G1 X93.496 Y96.203 E3.7347
G1 X94.066 Y95.458 E3.75342
G1 X94.698 Y94.764 E3.77215
G0 F6000 X95.089 Y94.939
G1 F1200 X95.774 Y94.323 E3.79053
G1 X96.51 Y93.77 E3.8089
G1 X97.291 Y93.282 E3.82728
G1 X98.111 Y92.864 E3.84565
G1 X98.965 Y92.519 E3.86403
G1 X99.845 Y92.249 E3.8824
G1 X100.745 Y92.057 E3.90076
G1 X101.659 Y91.943 E3.91914
G1 X102.212 Y91.913 E3.9302
G1 X102.533 Y91.904 E3.9366
G1 X102.83 Y91.9 E3.94253
G1 X131.793 Y91.9 E4.52052
G1 X132.643 Y91.911 E4.53748
G1 X133.562 Y91.964 E4.55585
G1 X134.473 Y92.097 E4.57423
G1 X135.369 Y92.308 E4.5926
G1 X136.243 Y92.596 E4.61096
G1 X137.09 Y92.959 E4.62935
G1 X137.901 Y93.394 E4.64772
G1 X138.671 Y93.898 E4.66608
G1 X139.395 Y94.467 E4.68446
G1 X140.067 Y95.097 E4.70284
G1 X140.682 Y95.782 E4.72121
G1 X141.235 Y96.518 E4.73958
G1 X141.722 Y97.299 E4.75795
G1 X142.139 Y98.12 E4.77633
G1 X142.484 Y98.974 E4.79471
G1 X142.753 Y99.854 E4.81307
G1 X142.945 Y100.755 E4.83145
G1 X143.058 Y101.668 E4.84981
G1 X143.087 Y102.212 E4.86068
G1 X143.096 Y102.532 E4.86707
G1 X143.1 Y102.83 E4.87302
G1 X143.099 Y131.895 E5.45304
G1 X143.09 Y132.622 E5.46755
G1 X143.039 Y133.541 E5.48592
G1 X142.908 Y134.453 E5.50431
G1 X142.698 Y135.349 E5.52267
G1 X142.412 Y136.224 E5.54104
G1 X142.051 Y137.071 E5.55942
G1 X141.617 Y137.883 E5.57779
G1 X141.115 Y138.655 E5.59617
G1 X140.547 Y139.38 E5.61455
G1 X139.919 Y140.053 E5.63292
G1 X139.235 Y140.669 E5.65129
G1 X138.5 Y141.223 E5.66965
G1 X137.72 Y141.712 E5.68803
G1 X136.9 Y142.131 E5.7064
G1 X136.047 Y142.477 E5.72477
G1 X135.167 Y142.748 E5.74315
G1 X134.267 Y142.941 E5.76152
G1 X133.353 Y143.056 E5.7799
G1 X132.788 Y143.087 E5.79119
G1 X132.467 Y143.096 E5.7976
G1 X132.17 Y143.1 E5.80353
G1 X103.07 Y143.099 E6.38425
G1 X102.372 Y143.09 E6.39818
G1 X101.453 Y143.038 E6.41655
G1 X100.542 Y142.907 E6.43492
G1 X99.646 Y142.697 E6.45328
G1 X98.771 Y142.41 E6.47166
G1 X97.924 Y142.048 E6.49004
G1 X97.112 Y141.614 E6.50841
G1 X96.341 Y141.112 E6.52677
G1 X95.616 Y140.544 E6.54515
G1 X94.943 Y139.915 E6.56354
G1 X94.328 Y139.231 E6.58189
G1 X93.774 Y138.496 E6.60026
G1 X93.286 Y137.715 E6.61864
G1 X92.867 Y136.895 E6.63702
G1 X92.521 Y136.042 E6.65538
G1 X92.251 Y135.162 E6.67375
G1 X92.058 Y134.261 E6.69214
G1 X91.944 Y133.348 E6.7105
G1 X91.913 Y132.777 E6.72192
G1 X91.904 Y132.444 E6.72856
G1 X91.9 Y132.158 E6.73427
G1 X91.901 Y103.031 E7.31553
G1 X91.91 Y102.366 E7.3288
G1 X91.962 Y101.446 E7.34719
G1 X92.094 Y100.535 E7.36556
G1 X92.305 Y99.639 E7.38393
G1 X92.592 Y98.764 E7.40231
G1 X92.955 Y97.918 E7.42068
G1 X93.389 Y97.106 E7.43905
G1 X93.892 Y96.335 E7.45743
G1 X94.461 Y95.611 E7.4758
G1 X95.089 Y94.939 E7.49416
G0 F6000 X95.481 Y95.117
G1 F1200 X96.162 Y94.524 E7.51218
G1 X96.894 Y93.994 E7.53021
G1 X97.669 Y93.531 E7.54823
G1 X98.482 Y93.138 E7.56625
G1 X99.327 Y92.818 E7.58428
G1 X100.196 Y92.575 E7.60229
G1 X101.084 Y92.409 E7.62031
G1 X102.223 Y92.313 E7.64313
G1 X102.544 Y92.304 E7.64953
G1 X102.83 Y92.3 E7.65524
G1 X131.793 Y92.3 E8.23323
G1 X132.637 Y92.311 E8.25007
G1 X133.539 Y92.364 E8.26811
G1 X134.432 Y92.496 E8.28612
G1 X135.31 Y92.707 E8.30414
G1 X136.166 Y92.995 E8.32216
G1 X136.993 Y93.357 E8.34018
G1 X137.785 Y93.792 E8.35821
G1 X138.536 Y94.294 E8.37624
G1 X139.239 Y94.861 E8.39426
G1 X139.889 Y95.488 E8.41228
G1 X140.481 Y96.17 E8.43031
G1 X141.011 Y96.901 E8.44833
G1 X141.473 Y97.677 E8.46635
G1 X141.866 Y98.49 E8.48437
G1 X142.184 Y99.335 E8.50239
G1 X142.427 Y100.205 E8.52041
G1 X142.592 Y101.093 E8.53844
G1 X142.687 Y102.223 E8.56107
G1 X142.696 Y102.543 E8.56746
G1 X142.7 Y102.83 E8.57318
G1 X142.699 Y131.89 E9.15311
G1 X142.69 Y132.617 E9.16762
G1 X142.639 Y133.519 E9.18565
G1 X142.508 Y134.413 E9.20368
G1 X142.299 Y135.291 E9.22169
G1 X142.013 Y136.148 E9.23972
G1 X141.652 Y136.976 E9.25774
G1 X141.22 Y137.768 E9.27575
G1 X140.719 Y138.52 E9.29378
G1 X140.153 Y139.224 E9.31181
G1 X139.528 Y139.875 E9.32981
G1 X138.847 Y140.469 E9.34785
G1 X138.116 Y141 E9.36588
G1 X137.342 Y141.464 E9.38389
G1 X136.529 Y141.858 E9.40192
G1 X135.685 Y142.178 E9.41993
G1 X134.815 Y142.423 E9.43797
G1 X133.928 Y142.589 E9.45598
G1 X132.777 Y142.687 E9.47903
G1 X132.456 Y142.696 E9.48544
G1 X132.17 Y142.7 E9.49114
G1 X103.075 Y142.699 E10.07177
G1 X102.377 Y142.69 E10.0857
G1 X101.476 Y142.639 E10.10371
G1 X100.582 Y142.507 E10.12174
G1 X99.704 Y142.298 E10.13975
G1 X98.847 Y142.011 E10.15779
G1 X98.02 Y141.65 E10.17579
G1 X97.227 Y141.217 E10.19383
G1 X96.476 Y140.716 E10.21184
G1 X95.772 Y140.15 E10.22987
G1 X95.121 Y139.524 E10.24789
G1 X94.528 Y138.843 E10.26591
G1 X93.998 Y138.112 E10.28393
G1 X93.534 Y137.337 E10.30196
G1 X93.14 Y136.524 E10.31999
G1 X92.82 Y135.68 E10.338
G1 X92.576 Y134.81 E10.35603
G1 X92.41 Y133.922 E10.37406
G1 X92.313 Y132.767 E10.39719
G1 X92.304 Y132.434 E10.40384
G1 X92.3 Y132.158 E10.40934
G1 X92.301 Y103.036 E10.99051
G1 X92.31 Y102.371 E11.00378
G1 X92.362 Y101.469 E11.02181
G1 X92.494 Y100.576 E11.03982
G1 X92.704 Y99.698 E11.05784
G1 X92.991 Y98.841 E11.07587
G1 X93.353 Y98.014 E11.09389
G1 X93.786 Y97.222 E11.1119
G1 X94.288 Y96.471 E11.12993
G1 X94.855 Y95.767 E11.14797
G1 X95.481 Y95.117 E11.16598
G1 F2700 E6.16598
;MESH:Test_Cube v1.stl
G0 F6000 X102.088 Y102.089
G0 X102.914 Y102.914
G0 X131.318 Y103.682
G0 X131.5 Y131.5
;TYPE:WALL-INNER
G1 F2700 E11.16598
G1 F1200 X103.5 Y131.5 E11.72475
G1 X103.5 Y103.5 E12.28352
G1 X131.5 Y103.5 E12.84229
G1 X131.5 Y131.5 E13.40106
G0 F6000 X131.9 Y131.9
G1 F1200 X103.1 Y131.9 E13.97579
G1 X103.1 Y103.1 E14.55053
G1 X131.9 Y103.1 E15.12526
G1 X131.9 Y131.9 E15.7
G0 F6000 X132.3 Y132.3
;TYPE:WALL-OUTER
G1 F1200 X102.7 Y132.3 E16.2907
G1 X102.7 Y102.7 E16.8814
G1 X132.3 Y102.7 E17.4721
G1 X132.3 Y132.3 E18.0628
G0 F6000 X132.03 Y132.03
G0 X131.39 Y131.11
G0 X131.11 Y131.11
;TYPE:SKIN
G1 F1200 X103.89 Y131.11 E18.606
G1 X103.89 Y103.89 E19.14921
G1 X131.11 Y103.89 E19.69241
G1 X131.11 Y131.11 E20.23562
G0 F6000 X131.39 Y131.11
G0 X131.39 Y104.362
G0 X130.949 Y104.362
G1 F1200 X130.637 Y104.05 E20.24442
G0 F6000 X130.071 Y104.05
G1 F1200 X130.949 Y104.928 E20.2692
G0 F6000 X130.949 Y105.493
G1 F1200 X129.505 Y104.05 E20.30994
G0 F6000 X128.94 Y104.05
G1 F1200 X130.949 Y106.059 E20.36664
G0 F6000 X130.949 Y106.625
G1 F1200 X128.374 Y104.05 E20.43931
G0 F6000 X127.808 Y104.05
G1 F1200 X130.949 Y107.191 E20.52796
G0 F6000 X130.949 Y107.756
G1 F1200 X127.243 Y104.05 E20.63255
G0 F6000 X126.677 Y104.05
G1 F1200 X130.949 Y108.322 E20.75311
G0 F6000 X130.949 Y108.888
G1 F1200 X126.111 Y104.05 E20.88965
G0 F6000 X125.546 Y104.05
G1 F1200 X130.949 Y109.453 E21.04214
G0 F6000 X130.949 Y110.019
G1 F1200 X124.98 Y104.05 E21.21059
G0 F6000 X124.414 Y104.05
G1 F1200 X130.949 Y110.585 E21.39503
G0 F6000 X130.949 Y111.15
G1 F1200 X123.849 Y104.05 E21.5954
G0 F6000 X123.283 Y104.05
G1 F1200 X130.949 Y111.716 E21.81175
G0 F6000 X130.949 Y112.282
G1 F1200 X122.717 Y104.05 E22.04408
G0 F6000 X122.151 Y104.05
G1 F1200 X130.949 Y112.847 E22.29236
G0 F6000 X130.949 Y113.413
G1 F1200 X121.586 Y104.05 E22.55661
G0 F6000 X121.02 Y104.05
G1 F1200 X130.949 Y113.979 E22.83683
G0 F6000 X130.949 Y114.544
G1 F1200 X120.454 Y104.05 E23.133
G0 F6000 X119.889 Y104.05
G1 F1200 X130.949 Y115.11 E23.44514
G0 F6000 X130.949 Y115.676
G1 F1200 X119.323 Y104.05 E23.77325
G0 F6000 X118.757 Y104.05
G1 F1200 X130.949 Y116.241 E24.11732
G0 F6000 X130.949 Y116.807
G1 F1200 X118.192 Y104.05 E24.47735
G0 F6000 X117.626 Y104.05
G1 F1200 X130.949 Y117.373 E24.85335
G0 F6000 X130.949 Y117.939
G1 F1200 X117.06 Y104.05 E25.24533
G0 F6000 X116.495 Y104.05
G1 F1200 X130.949 Y118.504 E25.65326
G0 F6000 X130.949 Y119.07
G1 F1200 X115.929 Y104.05 E26.07715
G0 F6000 X115.363 Y104.05
G1 F1200 X130.949 Y119.636 E26.51702
G0 F6000 X130.949 Y120.201
G1 F1200 X114.798 Y104.05 E26.97284
G0 F6000 X114.232 Y104.05
G1 F1200 X130.949 Y120.767 E27.44463
G0 F6000 X130.949 Y121.333
G1 F1200 X113.666 Y104.05 E27.93239
G0 F6000 X113.101 Y104.05
G1 F1200 X130.949 Y121.898 E28.4361
G0 F6000 X130.949 Y122.464
G1 F1200 X112.535 Y104.05 E28.95578
G0 F6000 X111.969 Y104.05
G1 F1200 X130.949 Y123.03 E29.49144
G0 F6000 X130.949 Y123.595
G1 F1200 X111.403 Y104.05 E30.04306
G0 F6000 X110.838 Y104.05
G1 F1200 X130.949 Y124.161 E30.61063
G0 F6000 X130.949 Y124.727
G1 F1200 X110.272 Y104.05 E31.19418
G0 F6000 X109.706 Y104.05
G1 F1200 X130.949 Y125.292 E31.79369
G0 F6000 X130.949 Y125.858
G1 F1200 X109.141 Y104.05 E32.40916
G0 F6000 X108.575 Y104.05
G1 F1200 X130.949 Y126.424 E33.0406
G0 F6000 X130.949 Y126.99
G1 F1200 X108.009 Y104.05 E33.68802
G0 F6000 X107.444 Y104.05
G1 F1200 X130.949 Y127.555 E34.35138
G0 F6000 X130.949 Y128.121
G1 F1200 X106.878 Y104.05 E35.03072
G0 F6000 X106.312 Y104.05
G1 F1200 X130.949 Y128.687 E35.72603
G0 F6000 X130.949 Y129.252
G1 F1200 X105.747 Y104.05 E36.43728
G0 F6000 X105.181 Y104.05
G1 F1200 X130.949 Y129.818 E37.16451
G0 F6000 X130.949 Y130.384
G1 F1200 X104.615 Y104.05 E37.90771
G0 F6000 X104.049 Y104.049
G1 F1200 X130.949 Y130.949 E38.66689
G0 F6000 X130.384 Y130.949
G1 F1200 X104.049 Y104.615 E39.41011
G0 F6000 X104.049 Y105.18
G1 F1200 X129.818 Y130.949 E40.13736
G0 F6000 X129.252 Y130.949
G1 F1200 X104.049 Y105.746 E40.84865
G0 F6000 X104.049 Y106.312
G1 F1200 X128.687 Y130.949 E41.54397
G0 F6000 X128.121 Y130.949
G1 F1200 X104.049 Y106.877 E42.22333
G0 F6000 X104.049 Y107.443
G1 F1200 X127.555 Y130.949 E42.88672
G0 F6000 X126.99 Y130.949
G1 F1200 X104.049 Y108.009 E43.53415
G0 F6000 X104.049 Y108.574
G1 F1200 X126.424 Y130.949 E44.16562
G0 F6000 X125.858 Y130.949
G1 F1200 X104.049 Y109.14 E44.78112
G0 F6000 X104.049 Y109.706
G1 F1200 X125.292 Y130.949 E45.38064
G0 F6000 X124.727 Y130.949
G1 F1200 X104.049 Y110.271 E45.96422
G0 F6000 X104.049 Y110.837
G1 F1200 X124.161 Y130.949 E46.53183
G0 F6000 X123.595 Y130.949
G1 F1200 X104.049 Y111.403 E47.08346
G0 F6000 X104.049 Y111.968
G1 F1200 X123.03 Y130.949 E47.61914
G0 F6000 X122.464 Y130.949
G1 F1200 X104.049 Y112.534 E48.13885
G0 F6000 X104.049 Y113.1
G1 F1200 X121.898 Y130.949 E48.64259
G0 F6000 X121.333 Y130.949
G1 F1200 X104.049 Y113.666 E49.13037
G0 F6000 X104.049 Y114.231
G1 F1200 X120.767 Y130.949 E49.60219
G0 F6000 X120.201 Y130.949
G1 F1200 X104.049 Y114.797 E50.05803
G0 F6000 X104.049 Y115.363
G1 F1200 X119.636 Y130.949 E50.49791
G0 F6000 X119.07 Y130.949
G1 F1200 X104.049 Y115.928 E50.92184
G0 F6000 X104.049 Y116.494
G1 F1200 X118.504 Y130.949 E51.32979
G0 F6000 X117.939 Y130.949
G1 F1200 X104.049 Y117.06 E51.72178
G0 F6000 X104.049 Y117.625
G1 F1200 X117.373 Y130.949 E52.09782
G0 F6000 X116.807 Y130.949
G1 F1200 X104.049 Y118.191 E52.45787
G0 F6000 X104.049 Y118.757
G1 F1200 X116.241 Y130.949 E52.80196
G0 F6000 X115.676 Y130.949
G1 F1200 X104.049 Y119.322 E53.1301
G0 F6000 X104.049 Y119.888
G1 F1200 X115.11 Y130.949 E53.44226
G0 F6000 X114.544 Y130.949
G1 F1200 X104.049 Y120.454 E53.73845
G0 F6000 X104.049 Y121.019
G1 F1200 X113.979 Y130.949 E54.0187
G0 F6000 X113.413 Y130.949
G1 F1200 X104.049 Y121.585 E54.28297
G0 F6000 X104.049 Y122.151
G1 F1200 X112.847 Y130.949 E54.53127
G0 F6000 X112.282 Y130.949
G1 F1200 X104.049 Y122.716 E54.76362
G0 F6000 X104.049 Y123.282
G1 F1200 X111.716 Y130.949 E54.98
G0 F6000 X111.15 Y130.949
G1 F1200 X104.049 Y123.848 E55.18041
G0 F6000 X104.049 Y124.414
G1 F1200 X110.585 Y130.949 E55.36485
G0 F6000 X110.019 Y130.949
G1 F1200 X104.049 Y124.979 E55.53334
G0 F6000 X104.049 Y125.545
G1 F1200 X109.453 Y130.949 E55.68585
